X:1
T:Title
%%score { ( 1 3 ) | ( 2 4 ) }
L:1/8
M:6/4
K:G
V:1 treble nm="Grand Piano"
V:3 treble 
V:2 bass 
V:4 bass 
V:1
 z6 z4[Q:1/4=165] [B,D]2 | [B,DG]4 [DFA]2 [DGB]4 [DAc]2 | .d6 z6 | [B,GB]4 [DGB]2 [CFA]4 [CFA]2 | %4
[M:5/4] [B,G]2- [B,G]2- [B,G]6 |[M:1/4] [B,D]2 |[M:6/4] [B,DG]4 [DFA]2 [DGB]4 [DAc]2 | .d6 z6 | %8
 [GB]4 [GB]2 [FA]4 [FA]2 |[M:5/4] G2- G2- G6 |[M:1/4] B2 |[M:6/4] d4 d2 d4 [Fd]2 | G12 | %13
 [DGB]4 [DGB]2 [EGc]4 [DGB]2 |[M:5/4] A2- A2- A6 |[M:1/4] [B,D]2 | %16
[M:6/4] [B,DG]4 [DFA]2 [DGB]4 [DAc]2 | .d6 z6 | [B,GB]4 [DGB]2 [CFA]4 [CFA]2 |[M:9/4] [B,G]12 z6 |] %20
V:2
 z6 z4 G,2 | G,4 D,2 G,4 G,2 | z2 B,2[K:treble] [G,CG]2 [G,B,G]4[K:bass] [E,B,]2 | %3
 D,4 D,2 D,4 D,2 |[M:5/4] G,2- G,2- G,6 |[M:1/4] G,2 |[M:6/4] G,4 D,2 G,4 G,2 | %7
 z2 B,2[K:treble] [G,CG]2 [G,B,G]4[K:bass] [E,B,]2 | [D,B,]4 [D,D]2 [D,C]4 [D,C]2 | %9
[M:5/4] [G,B,]2- [G,B,]2- [G,B,]6 |[M:1/4][K:treble] [G,G]2 | %11
[M:6/4] [G,B,G]4 [G,B,G]2 [A,CF]4[K:bass] [D,C]2 | B,4 C2 B,4 D,2 | G,4 G,2 G,4 G,2 | %14
[M:5/4] D,4 A,2 D,4 |[M:1/4] G,2 |[M:6/4] G,4 D,2 G,4 G,2 | %17
 z2 B,2[K:treble] [G,CG]2 [G,B,G]4[K:bass] [E,B,]2 | D,4 D,2 D,4 D,2 |[M:9/4] G,12 z6 |] %20
V:3
 x12 | x12 | [DB]2 G2 e2 d4 G2 | x12 |[M:5/4] x10 |[M:1/4] x2 |[M:6/4] x12 | [DB]2 G2 e2 d4 G2 | %8
 x12 |[M:5/4] x10 |[M:1/4] x2 |[M:6/4] x12 | z4 E2 D4 [DFA]2 | x12 |[M:5/4] [DF]4 [^CG]2 [DF]4 | %15
[M:1/4] x2 |[M:6/4] x12 | [DB]2 G2 e2 d4 G2 | x12 |[M:9/4] x18 |] %20
V:4
 x12 | x12 | .G,6[K:treble] z6[K:bass] | x12 |[M:5/4] x10 |[M:1/4] x2 |[M:6/4] x12 | %7
 .G,6[K:treble] z6[K:bass] | x12 |[M:5/4] x10 |[M:1/4][K:treble] x2 |[M:6/4] x10[K:bass] x2 | %12
 G,12 | x12 |[M:5/4] x10 |[M:1/4] x2 |[M:6/4] x12 | .G,6[K:treble] z6[K:bass] | x12 |[M:9/4] x18 |] %20

